resources/svg/footprint-line.svg

<svg fill="currentColor" viewBox="0 0 24 24" xmlns="http://www.w3.org/2000/svg"><path d="M4 17.9998H9.5V19.2498C9.5 20.7686 8.26878 21.9998 6.75 21.9998C5.23122 21.9998 4 20.7686 4 19.2498V17.9998ZM8.05848 13.9998L8.10263 13.8674C8.86974 11.762 9 11.3712 9 10.9998C9 10.2503 8.79747 9.35724 8.47234 8.72659C8.23039 8.25729 8.06 8.12043 8 8.12043C6.72086 8.12043 5.5 9.48426 5.5 10.9998C5.5 11.9586 5.57517 12.773 5.72674 13.7582C5.7328 13.7976 5.74709 13.8871 5.76512 13.9998H8.05848ZM8 6.12043C10 6.12043 11 8.99982 11 10.9998C11 11.9998 10.5 12.9998 10 14.4998L9.5 15.9998H4C4 14.9998 3.5 13.4998 3.5 10.9998C3.5 8.49982 5.49783 6.12043 8 6.12043ZM20.054 14.0981L19.8369 15.3292C19.5732 16.8249 18.1468 17.8236 16.6511 17.5598C15.1554 17.2961 14.1567 15.8698 14.4205 14.3741L14.6375 13.1431L20.054 14.0981ZM19.0045 9.8514C19.1695 9.35163 19.3054 8.95728 19.3071 8.95163C19.5089 8.2935 19.668 7.64868 19.7923 6.94402C20.0555 5.45149 19.09 3.89638 17.8303 3.67426C17.7712 3.66384 17.5796 3.76903 17.2598 4.18919C16.8301 4.7538 16.4756 5.59814 16.3455 6.33625C16.2872 6.66645 16.2964 6.74048 16.6158 8.59923C16.6596 8.85446 16.697 9.08498 16.7312 9.31605L16.7517 9.45416L19.0045 9.8514ZM18.1776 1.70464C20.6417 2.13914 22.196 4.82929 21.7619 7.29131C21.3278 9.75333 20.5749 11.1437 20.4013 12.1285L14.9848 11.1735L14.7529 9.60943C14.5209 8.04539 14.2022 6.97376 14.3758 5.98895C14.7231 4.01934 16.2079 1.35734 18.1776 1.70464Z"/></svg>

<svg xmlns="http://www.w3.org/2000/svg" viewBox="0 0 24 24" fill="currentColor">
    <g>
        <path fill="none" d="M0 0h24v24H0z"/>
        <path d="M4 18h5.5v1.25a2.75 2.75 0 1 1-5.5 0V18zm4.058-4l.045-.132C8.87 11.762 9 11.37 9 11c0-.75-.203-1.643-.528-2.273C8.23 8.257 8.06 8.12 8 8.12 6.72 8.12 5.5 9.484 5.5 11c0 .959.075 1.773.227 2.758l.038.242h2.293zM8 6.12c2 0 3 2.88 3 4.88 0 1-.5 2-1 3.5L9.5 16H4c0-1-.5-2.5-.5-5S5.498 6.12 8 6.12zm12.054 7.978l-.217 1.231a2.75 2.75 0 0 1-5.417-.955l.218-1.23 5.416.954zm-1.05-4.246c.165-.5.301-.895.303-.9.202-.658.361-1.303.485-2.008.263-1.492-.702-3.047-1.962-3.27-.059-.01-.25.095-.57.515-.43.565-.784 1.41-.915 2.147-.058.33-.049.405.27 2.263.045.256.082.486.116.717l.02.138 2.254.398zm-.826-8.147c2.464.434 4.018 3.124 3.584 5.586-.434 2.463-1.187 3.853-1.36 4.838l-5.417-.955-.232-1.564c-.232-1.564-.55-2.636-.377-3.62.347-1.97 1.832-4.632 3.802-4.285z"/>
    </g>
</svg>
